X:1
L:1/8
Q:1/4=120
M:4/4
K:F
""^Strathspey."" vC2- C>uD F<F F>G | A>AG>F (D<F) (C<A,) | C2- C>D F<F F>G | A>G (A<c) d2 (3(def) | 
 C2- C>D F<F F>G | A>AG>F (A<c) (c<f) | d>ef>d c<A A>F | G>A B/A/G/F/ D2- Dc |] A<c c>d f>ed>c | 
 A>AG>F (D<F) (C<A,) | A<c c>d f>ed>c | A>G (A<c) d2- dc | A<c c>d f>ed>c | A>A G>F (A<c) (c<f) | 
 d>ef>d c<A A<F | G>A B/A/G/F/ D2- DC |]
